img/buy_now/paypal.svg

<svg width="57" height="15" viewBox="0 0 57 15" fill="none" xmlns="http://www.w3.org/2000/svg">
<path fill-rule="evenodd" clip-rule="evenodd" d="M21.5216 3.8501H18.4611C18.2518 3.84997 18.0735 3.99984 18.0409 4.20336L16.8031 11.9281C16.7916 12.0006 16.8129 12.0745 16.8615 12.1302C16.91 12.186 16.9809 12.218 17.0555 12.2179H18.5166C18.7261 12.218 18.9044 12.0679 18.9368 11.8642L19.2706 9.78072C19.303 9.57718 19.4811 9.42713 19.6904 9.42701H20.6592C22.6752 9.42701 23.8387 8.46677 24.1426 6.56389C24.2795 5.73139 24.1484 5.07727 23.7523 4.61918C23.3174 4.11615 22.5459 3.8501 21.5216 3.8501ZM21.8747 6.67133C21.7074 7.75227 20.8683 7.75227 20.057 7.75227H19.5952L19.9191 5.73355C19.9387 5.61154 20.0456 5.52168 20.1711 5.52168H20.3828C20.9354 5.52168 21.4568 5.52168 21.7261 5.83178C21.8868 6.01678 21.936 6.29164 21.8747 6.67133ZM29.2042 6.63684H30.6698C30.7442 6.63682 30.815 6.66894 30.8633 6.72471C30.9116 6.78049 30.9326 6.85431 30.9208 6.92668L30.1288 11.864C30.0963 12.0677 29.918 12.2178 29.7086 12.2177H28.3884C28.3138 12.2176 28.243 12.1853 28.1946 12.1294C28.1462 12.0735 28.1252 11.9995 28.1369 11.927L28.2023 11.5262C28.2023 11.5262 27.4787 12.3521 26.1738 12.3521C25.4135 12.3521 24.7744 12.1362 24.3278 11.6182C23.8409 11.0549 23.6418 10.247 23.7819 9.40217C24.0513 7.70853 25.4345 6.50117 27.054 6.50117C27.7601 6.50117 28.4676 6.6527 28.7849 7.10595L28.8874 7.25219L28.9523 6.84871C28.9719 6.7267 29.0787 6.63684 29.2042 6.63684ZM28.627 9.44409C28.4856 10.2682 27.821 10.8215 26.9735 10.8215C26.5479 10.8215 26.2078 10.6871 25.9894 10.4325C25.7728 10.1797 25.6905 9.81982 25.7594 9.41899C25.8914 8.6019 26.5671 8.03059 27.4017 8.03059C27.8179 8.03059 28.1562 8.1667 28.3791 8.4235C28.6024 8.68294 28.691 9.04502 28.627 9.44409ZM37.0023 6.63658H38.475C38.5699 6.63663 38.657 6.68853 38.701 6.77131C38.7449 6.8541 38.7386 6.95407 38.6845 7.03081L33.7861 13.9904C33.7067 14.1031 33.576 14.1703 33.4366 14.1701H31.9657C31.8703 14.1701 31.7828 14.1177 31.739 14.0343C31.6952 13.9508 31.7024 13.8503 31.7576 13.7737L33.2827 11.6545L31.6605 6.9687C31.6339 6.89192 31.6466 6.80721 31.6947 6.74129C31.7427 6.67537 31.8202 6.63637 31.9026 6.63658H33.3498C33.5379 6.63667 33.7037 6.758 33.7579 6.93523L34.6189 9.76531L36.6501 6.82026C36.7295 6.70554 36.8613 6.6368 37.0023 6.63658Z" fill="#253B80"/>
<path fill-rule="evenodd" clip-rule="evenodd" d="M52.9871 11.8172L54.2359 4.05948C54.2553 3.93924 54.3613 3.85053 54.4859 3.8501H55.8918C55.9659 3.85023 56.0362 3.88199 56.0843 3.93704C56.1324 3.99209 56.1534 4.06491 56.1418 4.13637L54.9104 11.7542C54.8783 11.9553 54.7013 12.103 54.4926 12.103H53.2372C53.1631 12.103 53.0928 12.0714 53.0447 12.0164C52.9966 11.9614 52.9755 11.8886 52.9871 11.8172ZM43.424 3.85076H40.3809C40.173 3.85084 39.996 3.9986 39.9636 4.19915L38.7331 11.8174C38.7215 11.8888 38.7425 11.9616 38.7906 12.0166C38.8387 12.0716 38.9091 12.1033 38.9831 12.1033H40.5447C40.6902 12.1031 40.814 11.9995 40.8365 11.8591L41.1857 9.69967C41.2179 9.49894 41.395 9.35095 41.603 9.35083H42.5658C44.5704 9.35083 45.7267 8.40382 46.0292 6.52716C46.1658 5.70613 46.0345 5.06102 45.6408 4.60924C45.2088 4.11314 44.4423 3.85076 43.424 3.85076ZM43.775 6.63317C43.6091 7.69922 42.7749 7.69922 41.9679 7.69922H41.5092L41.8318 5.70831C41.8509 5.58795 41.957 5.49921 42.0818 5.49936H42.2922C42.8412 5.49936 43.3599 5.49936 43.6278 5.80518C43.7875 5.98764 43.836 6.25871 43.775 6.63317ZM51.0622 6.59864H52.5183C52.5925 6.59856 52.663 6.63014 52.7114 6.6851C52.7597 6.74006 52.781 6.81289 52.7697 6.88448L51.9818 11.7538C51.9496 11.9545 51.7726 12.1025 51.5645 12.1026H50.2525C50.1782 12.1028 50.1075 12.0711 50.0592 12.0159C50.011 11.9607 49.9899 11.8876 50.0016 11.8159L50.0666 11.4206C50.0666 11.4206 49.3472 12.2351 48.0499 12.2351C47.2941 12.2351 46.6597 12.0223 46.2148 11.5114C45.7307 10.9558 45.5337 10.1591 45.6725 9.32587C45.9403 7.65556 47.315 6.46484 48.925 6.46484C49.627 6.46484 50.33 6.61428 50.6454 7.06129L50.7477 7.20551L50.8122 6.80759C50.8311 6.68714 50.9374 6.59831 51.0622 6.59864ZM50.4875 9.36754C50.3478 10.1803 49.6862 10.7259 48.8436 10.7259C48.4214 10.7259 48.0824 10.5934 47.8653 10.3424C47.65 10.093 47.569 9.73809 47.6367 9.34277C47.7688 8.53694 48.4397 7.97351 49.2694 7.97351C49.6831 7.97351 50.0195 8.10774 50.241 8.36101C50.4639 8.61687 50.552 8.97396 50.4875 9.36754Z" fill="#179BD7"/>
<path d="M4.04618 13.525L4.27595 12.0016L3.76412 11.9892H1.32007L3.01856 0.747903C3.02901 0.676912 3.0877 0.624623 3.15651 0.625002H7.27753C8.64564 0.625002 9.58978 0.922165 10.0827 1.5087C10.3138 1.78385 10.461 2.07138 10.5322 2.3878C10.6069 2.71982 10.6082 3.11649 10.5352 3.6003L10.53 3.63561V3.94562L10.7611 4.08227C10.9375 4.17557 11.0961 4.30177 11.229 4.45465C11.4267 4.6899 11.5545 4.9889 11.6086 5.34338C11.6643 5.70796 11.6459 6.14178 11.5545 6.63293C11.4491 7.1979 11.2786 7.68996 11.0484 8.0926C10.8453 8.4533 10.5722 8.7657 10.2466 9.00977C9.94081 9.23631 9.57748 9.40828 9.16669 9.51834C8.76865 9.62657 8.31481 9.68114 7.81704 9.68114H7.49632C7.26698 9.68114 7.04424 9.76735 6.86938 9.9219C6.69477 10.0781 6.57894 10.2939 6.54251 10.5309L6.51835 10.668L6.1124 13.353L6.09395 13.4516C6.08911 13.4828 6.08077 13.4984 6.06846 13.5089C6.05655 13.5191 6.04168 13.5248 6.02629 13.525H4.04618Z" fill="#253B80"/>
<path d="M11.1075 3.8501C11.0945 3.93216 11.0796 4.01606 11.0628 4.10225C10.4867 7.01395 8.51563 8.01982 5.99824 8.01982H4.71649C4.40863 8.01982 4.14921 8.23988 4.10124 8.5388L3.44499 12.6356L3.25916 13.7969C3.24418 13.8901 3.2714 13.9851 3.33366 14.0569C3.39592 14.1287 3.48697 14.17 3.58285 14.1701H5.85619C6.12539 14.1701 6.35408 13.9775 6.39646 13.7162L6.41882 13.6025L6.84684 10.9288L6.87432 10.7821C6.91624 10.5198 7.14539 10.3273 7.41459 10.3273H7.75459C9.95713 10.3273 11.6813 9.44701 12.1853 6.89979C12.3958 5.8357 12.2868 4.9472 11.7298 4.32231C11.5532 4.12901 11.3424 3.96899 11.1075 3.8501Z" fill="#179BD7"/>
<path d="M10.4401 3.41003C10.2707 3.35733 10.0985 3.3162 9.92428 3.28688C9.58011 3.22998 9.23228 3.20268 8.88408 3.20524H5.73176C5.48388 3.20504 5.27288 3.3993 5.23481 3.66279L4.56422 8.23178L4.54492 8.36508C4.58809 8.06453 4.82862 7.84281 5.11133 7.84296H6.29131C8.60881 7.84296 10.4234 6.83055 10.9538 3.90171C10.9696 3.815 10.9829 3.73059 10.9949 3.64803C10.855 3.56908 10.7091 3.50289 10.5589 3.45016C10.5195 3.4361 10.4799 3.42272 10.4401 3.41003Z" fill="#222D65"/>
<path d="M4.95454 4.14163C4.99373 3.88058 5.21304 3.68816 5.47045 3.68898H8.74308C9.13079 3.68898 9.49268 3.71501 9.82297 3.76983C10.0465 3.80587 10.2669 3.85978 10.4822 3.93106C10.6447 3.98633 10.7956 4.05165 10.9349 4.12702C11.0987 3.05499 10.9336 2.32508 10.3687 1.66414C9.74597 0.936514 8.622 0.625 7.18377 0.625H3.00841C2.71462 0.625 2.46401 0.844247 2.4186 1.14251L0.679463 12.4543C0.663069 12.5606 0.692812 12.6689 0.760868 12.7508C0.828923 12.8326 0.928478 12.8799 1.03334 12.88H3.61112L4.25835 8.66634L4.95454 4.14163Z" fill="#253B80"/>
</svg>

<svg width="57" height="15" fill="none" xmlns="http://www.w3.org/2000/svg"><path fill-rule="evenodd" clip-rule="evenodd" d="M21.522 3.85h-3.06c-.21 0-.389.15-.421.353l-1.238 7.725a.248.248 0 00.058.202c.049.056.12.088.194.088h1.462c.21 0 .387-.15.42-.354l.334-2.083a.423.423 0 01.42-.354h.968c2.016 0 3.18-.96 3.484-2.863.136-.833.005-1.487-.39-1.945-.436-.503-1.207-.769-2.231-.769zm.353 2.821c-.168 1.081-1.007 1.081-1.818 1.081h-.462l.324-2.018a.254.254 0 01.252-.212h.212c.552 0 1.074 0 1.343.31.16.185.21.46.149.84zm7.33-.034h1.465c.074 0 .145.032.193.088.049.055.07.13.058.202l-.792 4.937a.423.423 0 01-.42.354h-1.32a.257.257 0 01-.194-.089.249.249 0 01-.058-.202l.065-.4s-.723.825-2.028.825c-.76 0-1.4-.216-1.846-.734-.487-.563-.686-1.371-.546-2.216.27-1.693 1.652-2.9 3.272-2.9.706 0 1.414.15 1.73.604l.103.146.065-.403a.254.254 0 01.252-.212zm-.578 2.807c-.141.824-.806 1.377-1.653 1.377-.426 0-.766-.134-.985-.389-.216-.252-.299-.612-.23-1.013a1.633 1.633 0 011.643-1.388c.416 0 .754.136.977.393.223.259.312.621.248 1.02zm8.375-2.807h1.473c.095 0 .182.052.226.134a.248.248 0 01-.017.26l-4.898 6.96a.427.427 0 01-.35.18h-1.47a.256.256 0 01-.227-.137.248.248 0 01.019-.26l1.525-2.12L31.66 6.97a.248.248 0 01.035-.228.256.256 0 01.208-.104h1.447c.188 0 .354.121.408.298l.86 2.83L36.65 6.82a.429.429 0 01.352-.183z" fill="#253B80"/><path fill-rule="evenodd" clip-rule="evenodd" d="M52.987 11.817l1.249-7.758a.252.252 0 01.25-.209h1.406c.074 0 .144.032.192.087.048.055.07.128.058.2l-1.232 7.617a.42.42 0 01-.417.349h-1.256a.256.256 0 01-.192-.087.243.243 0 01-.058-.199zm-9.563-7.966h-3.043a.42.42 0 00-.417.348l-1.23 7.618a.243.243 0 00.057.2.256.256 0 00.192.086h1.562a.293.293 0 00.291-.244l.35-2.16a.42.42 0 01.417-.348h.963c2.004 0 3.16-.947 3.463-2.824.137-.82.005-1.466-.388-1.918-.432-.496-1.199-.758-2.217-.758zm.351 2.782c-.166 1.066-1 1.066-1.807 1.066h-.459l.323-1.99a.25.25 0 01.25-.21h.21c.55 0 1.068 0 1.336.306.16.183.208.454.147.828zm7.287-.034h1.456c.075 0 .145.031.193.086.049.055.07.128.059.2l-.788 4.869a.42.42 0 01-.417.349h-1.313a.256.256 0 01-.193-.087.244.244 0 01-.057-.2l.065-.395s-.72.814-2.017.814c-.756 0-1.39-.213-1.835-.724-.484-.555-.681-1.352-.543-2.185.268-1.67 1.643-2.861 3.253-2.861.702 0 1.405.15 1.72.596l.103.145.064-.398a.25.25 0 01.25-.21zm-.575 2.769c-.14.812-.8 1.358-1.643 1.358-.423 0-.762-.133-.979-.384-.215-.249-.296-.604-.228-1 .132-.805.803-1.368 1.632-1.368.414 0 .75.134.972.387.223.256.311.613.246 1.007z" fill="#179BD7"/><path d="M4.046 13.525l.23-1.523-.512-.013H1.32L3.02.748a.14.14 0 01.138-.123h4.12c1.369 0 2.313.297 2.806.884.23.275.378.562.45.879.074.332.075.728.002 1.212l-.005.036v.31l.231.136c.177.094.335.22.468.373.198.235.326.534.38.888.055.365.037.799-.054 1.29-.106.565-.276 1.057-.507 1.46a2.97 2.97 0 01-.801.917 3.19 3.19 0 01-1.08.508 5.17 5.17 0 01-1.35.163h-.32a.948.948 0 00-.628.24 1.03 1.03 0 00-.326.61l-.025.137-.406 2.685-.018.099c-.005.03-.013.046-.026.057a.066.066 0 01-.042.016h-1.98z" fill="#253B80"/><path d="M11.107 3.85a7.236 7.236 0 01-.044.252C10.487 7.014 8.516 8.02 5.998 8.02H4.716a.62.62 0 00-.615.519l-.656 4.097-.186 1.16a.32.32 0 00.075.26.33.33 0 00.249.114h2.273c.27 0 .498-.193.54-.454l.023-.114.428-2.673.027-.147a.544.544 0 01.54-.455h.34c2.203 0 3.927-.88 4.431-3.427.21-1.064.102-1.953-.455-2.578a2.17 2.17 0 00-.623-.472z" fill="#179BD7"/><path d="M10.44 3.41a3.933 3.933 0 00-.516-.123 6.1 6.1 0 00-1.04-.082H5.732a.515.515 0 00-.497.458l-.67 4.569-.02.133c.043-.3.284-.522.566-.522h1.18c2.318 0 4.132-1.012 4.663-3.941a7.13 7.13 0 00.04-.254 2.722 2.722 0 00-.554-.238z" fill="#222D65"/><path d="M4.955 4.142a.525.525 0 01.515-.453h3.273c.388 0 .75.026 1.08.08.223.037.444.09.66.162.162.055.313.12.452.196.164-1.072-.001-1.802-.566-2.463C9.746.937 8.622.625 7.184.625H3.008a.602.602 0 00-.59.518L.68 12.454a.375.375 0 00.082.297.353.353 0 00.272.129h2.578l.647-4.214.697-4.524z" fill="#253B80"/></svg>
